X:1
T:Title
%%score ( 1 2 ) ( 3 4 )
L:1/8
Q:1/4=96
M:4/4
K:B
V:1 treble nm="Grand Piano, Soprano"
V:2 treble 
V:3 bass nm="Choir Pad, Already Condemned"
V:4 bass 
V:1
 FB,CD E F2 D | F B2 c AB F2 | [B,D] [CE]2 [CE] [DF] [EA]2 [EA] | [EG]F-[CF][B,F] [A,C] [B,D]3 | %4
w: By~Francis~Augustus~Blackmer * * * * * *||||
 FB,CD E F2 D | F B2 c AB F2 | [EB] [Fd]2 [Ec] [DB][FA][EG][DF] | %7
w: |||
[M:6/8] [CE][K:bass] [B,D]2 [A,C]B,B, | (3D/[K:treble]F/B/F[Fc]- [Fc]2 [Fd]- | %9
w: ||
 [Fd][Ec][DB]- [DB]2 [DF]- | [DF]2 [EG]- [EG][EA][DB]- | [DB][Cc]F- F-[DF-][CF]- | %12
w: |||
 [CF]2 [B,D]- [B,D][CE][DF] | F[F=A][EG]- [EG]2 [EB]- | [EB]2 [EA]- [EA][DB][Fd]- | %15
w: |||
 [Fd][Ec]B- [CB-][EB-][DB]- | [DB]6 |] %17
w: ||
V:2
 x8 | x8 | x8 | z D z2 z4 | x8 | x8 | x8 |[M:6/8] x[K:bass] x5 | x/3[K:treble] x17/3 | x6 | x6 | %11
 z2 C- C z z | x6 | x6 | x6 | z2 D z3 | x6 |] %17
V:3
 F,B,,C,D, E, F,2 D, | F, B,2 C A,B, F,2 | [F,B,] [F,A,]2 [F,A,] [F,B,] [F,C]2 [F,C] | %3
 [F,B,]F,E,[F,,D,] [F,,F,] [B,,F,]3 | F,B,,C,D, E, F,2 D, | F, B,2 C A,B, F,2 | %6
 [B,,F,] [B,,F,]2 [B,,F,] [B,,F,] [B,,F,]2 [B,,B,] |[M:6/8] [E,G,] F,2 [F,,E,][F,,D,][B,,D,] | %8
 z F,[F,A,] [F,A,][F,A,][F,B,] | [F,B,]F,[B,,F,] [B,,F,][B,,F,][B,,B,]- | %10
 [B,,B,]2 [E,B,]- [E,B,][C,F,][C,F,] | [D,F,][^E,G,][F,A,]- [F,A,][F,B,][F,A,]- | %12
 [F,A,]2 [B,,F,] [B,,^E,][B,,F,][B,,B,] | [C,A,][D,B,][E,C] [E,^B,][E,C][E,G,] | %14
 [E,G,]2 F,- F,/ z/ F,F,- | F,F,F, ^E,G,F,- | F,6 |] %17
V:4
 x8 | x8 | x8 | x8 | x8 | x8 | x8 |[M:6/8] x6 | x6 | x6 | x6 | x6 | x6 | x6 | x6 | z2 B,,- B,,3- | %16
 B,,6 |] %17

